X:3790
T:Danza (CT 009)
R:Danza
C:Tradicional
S:Msica Tradicional Asturiana, (C) Tello & Tito. Asturies, 2001.
S:http://pagina.de/MusTradAst <telloytito@asturies.org>
N:Danza, dictada por Valentina Fernndez Garca, de cincuenta y ocho aos, de Lebinco, ayuntamiento de Aller.
N:La ejecutan solamente mujeres y es cantada por todas las danzadoras a la vez.
O:Lebinco (Ayer)
A:Asturies
Z:Cancioneru de Torner 009
M:6/8
L:1/8
Q:3/8=80
W:El sueu nun m'alimenta,
W:amante mo del alma,
W:el sueu nun m'alimenta:
W:toi durmiento na cama,
W:toi durmiendo na cama
W:y la pena me dispierta.
K:C
|:B2B d2d|c3 B2G|G6|B2B d2d|c3 B2B|B6|B2B d2d|c3 B2A|G6-|G3 z3:|
